public/logos/stripe.svg

<svg width="119" height="61" viewBox="0 0 119 61" fill="none" xmlns="http://www.w3.org/2000/svg">
<path fill-rule="evenodd" clip-rule="evenodd" d="M108.531 31.1842C108.531 24.1776 105.138 18.6489 98.6509 18.6489C92.1368 18.6489 88.1956 24.1776 88.1956 31.1295C88.1956 39.3678 92.8485 43.528 99.5267 43.528C102.784 43.528 105.247 42.7891 107.108 41.749V36.275C105.247 37.2056 103.112 37.7804 100.403 37.7804C97.7477 37.7804 95.3939 36.8498 95.0928 33.6202H108.477C108.477 33.2644 108.531 31.8411 108.531 31.1842ZM95.0107 28.5841C95.0107 25.4913 96.8992 24.2049 98.6235 24.2049C100.293 24.2049 102.072 25.4913 102.072 28.5841H95.0107ZM77.6308 18.6489C74.9486 18.6489 73.2243 19.9079 72.2664 20.7837L71.9106 19.0868H65.8892V51L72.7316 49.5494L72.759 41.8037C73.7443 42.5154 75.1949 43.528 77.6035 43.528C82.5027 43.528 86.964 39.5868 86.964 30.9105C86.9366 22.9733 82.4206 18.6489 77.6308 18.6489ZM75.9887 37.5067C74.3738 37.5067 73.4159 36.9319 72.759 36.2203L72.7316 26.0661C73.4433 25.2724 74.4286 24.725 75.9887 24.725C78.4793 24.725 80.2036 27.5167 80.2036 31.1021C80.2036 34.7697 78.5067 37.5067 75.9887 37.5067ZM56.474 17.034L63.3438 15.5561V10L56.474 11.4506V17.034ZM56.474 19.1142H63.3438V43.0628H56.474V19.1142ZM49.1115 21.1395L48.6736 19.1142H42.7617V43.0628H49.6041V26.8324C51.219 24.725 53.9559 25.1081 54.8044 25.4092V19.1142C53.9286 18.7857 50.7263 18.1836 49.1115 21.1395ZM35.4266 13.1749L28.7483 14.5981L28.721 36.5214C28.721 40.5721 31.759 43.5554 35.8097 43.5554C38.0541 43.5554 39.6963 43.1449 40.5995 42.6522V37.0961C39.7236 37.4519 35.3992 38.7109 35.3992 34.6602V24.9439H40.5995V19.1142H35.3992L35.4266 13.1749ZM16.9246 26.0661C16.9246 24.9987 17.8004 24.5881 19.251 24.5881C21.3311 24.5881 23.9586 25.2176 26.0387 26.3398V19.9079C23.767 19.0047 21.5227 18.6489 19.251 18.6489C13.6949 18.6489 10 21.5501 10 26.3945C10 33.9486 20.4005 32.7443 20.4005 36.0013C20.4005 37.2603 19.3057 37.6709 17.773 37.6709C15.5013 37.6709 12.6001 36.7403 10.3011 35.4813V41.9953C12.8465 43.0901 15.4192 43.5554 17.773 43.5554C23.466 43.5554 27.3798 40.7363 27.3798 35.8371C27.3525 27.6809 16.9246 29.1315 16.9246 26.0661Z" fill="white"/>
</svg>

<svg xmlns="http://www.w3.org/2000/svg" xmlns:xlink="http://www.w3.org/1999/xlink" viewBox="10.0078125 10.0078125 98.41015625 40.984375" width="52.825581395348834" height="22"><path fill="#635bff" fill-rule="evenodd" d="M108.531 31.184c0-7.006-3.393-12.535-9.88-12.535-6.514 0-10.455 5.529-10.455 12.48 0 8.239 4.653 12.399 11.33 12.399 3.258 0 5.721-.739 7.582-1.779v-5.474c-1.861.93-3.996 1.505-6.705 1.505-2.655 0-5.01-.93-5.31-4.16h13.384c0-.356.054-1.779.054-2.436m-13.52-2.6c0-3.093 1.888-4.38 3.613-4.38 1.669 0 3.448 1.287 3.448 4.38zM77.63 18.65c-2.682 0-4.407 1.259-5.365 2.135l-.355-1.697h-6.022V51l6.843-1.45.027-7.746c.985.711 2.436 1.724 4.844 1.724 4.9 0 9.361-3.941 9.361-12.617-.027-7.938-4.543-12.262-9.333-12.262m-1.642 18.858c-1.615 0-2.573-.575-3.23-1.287l-.027-10.154c.711-.794 1.697-1.341 3.257-1.341 2.49 0 4.215 2.792 4.215 6.377 0 3.668-1.697 6.405-4.215 6.405M56.474 17.034l6.87-1.478V10l-6.87 1.45zm0 2.08h6.87v23.949h-6.87zm-7.362 2.026-.438-2.026h-5.912v23.949h6.842v-16.23c1.615-2.108 4.352-1.725 5.2-1.424v-6.295c-.875-.328-4.078-.93-5.693 2.026m-13.685-7.965-6.679 1.423-.027 21.923c0 4.051 3.038 7.034 7.089 7.034 2.244 0 3.886-.41 4.79-.903v-5.556c-.876.356-5.2 1.615-5.2-2.436v-9.716h5.2v-5.83h-5.2zM16.925 26.066c0-1.067.875-1.478 2.326-1.478 2.08 0 4.708.63 6.788 1.752v-6.432c-2.272-.903-4.516-1.26-6.788-1.26-5.556 0-9.251 2.902-9.251 7.747 0 7.554 10.4 6.35 10.4 9.606 0 1.26-1.094 1.67-2.627 1.67-2.272 0-5.173-.93-7.472-2.19v6.514a19 19 0 0 0 7.472 1.56c5.693 0 9.607-2.819 9.607-7.718-.027-8.156-10.455-6.706-10.455-9.77" clip-rule="evenodd"/></svg>
